!!!!SEGMENT: Ser1004d-Requiem-Versus
!!!id: Ser1004d
!!!AGN: Mass; Versus
!!!voices: 4
!!!OPR: Requiem
!!!COM: Claudin de Sermisy
!!!OTL: Versus
**kern	**kern	**kern	**kern
*part4	*part3	*part2	*part1
*staff4	*staff3	*staff2	*staff1
*I"Bassus	*I"Tenor	*I"Altus	*I"Superius
*I'B	*I'T	*I'A	*I'S
*clefF4	*clefGv2	*clefGv2	*clefGv2
*k[]	*k[]	*k[]	*k[]
*M2/1	*M2/1	*M2/1	*M2/1
*met(C|)	*met(C|)	*met(C|)	*met(C|)
=1	=1	=1	=1
!!section: Virga tua
!!!OMD: Virga tua
!	!	!	!LO:TX:a:t=Cantus firmus&colon; Missa pro defunctis \n
1.AA	[0A	0r	0r
2AA	.	.	.
=2	=2	=2	=2
2C	0A]	0r	0r
1D	.	.	.
2C	.	.	.
=3	=3	=3	=3
0D	0F	0r	1.A
.	.	.	2B
=4	=4	=4	=4
1r	0A	0r	2c
.	.	.	2d
1AA	.	.	1c
=5	=5	=5	=5
2BB	0G	0r	2d
2.C	.	.	2.e
4D	.	.	4d
4E	.	.	[2c
4F	.	.	.
=6	=6	=6	=6
2G	0E	0r	2c]
1A	.	.	4B
.	.	.	4A
.	.	.	1B
2G#i	.	.	.
=7	=7	=7	=7
1A	1.F	0r	[0A
1D	.	.	.
.	2D	.	.
=8	=8	=8	=8
2r	1D	0r	1A]
1D	.	.	.
.	1r	.	2r
2C	.	.	[2A
=9	=9	=9	=9
2D	0r	0r	2A]
2E	.	.	2G
2F	.	.	2A
4E	.	.	2B
4D	.	.	.
=10	=10	=10	=10
2C	2r	0r	2c
1F	1D	.	2.A
.	.	.	4B
2E	2C	.	4c
.	.	.	4A
=11	=11	=11	=11
2F	2.D	0r	2B
1D	.	.	2A
.	4E	.	.
.	4F	.	2D
.	4G	.	.
2C	[2A	.	2E
=12	=12	=12	=12
2D	2A]	0r	2F
2BB	2G	.	2D
1AA	2A	.	1F
.	[2c	.	.
=13	=13	=13	=13
2.AA	2c]	0r	1E
.	4B	.	.
4BB	4A	.	.
2C	2G	.	2r
2AA	[2A	.	[2c
=14	=14	=14	=14
0E	2A]	0r	2c]
.	4G	.	4B
.	4F	.	4A
.	1G	.	2B
.	.	.	2c
=15	=15	=15	=15
2.D	2.F	0r	1d
4E	4G	.	.
2F	2A	.	2c
2D	[2B-i	.	[2d
=16	=16	=16	=16
1F	4B-]	0r	4d]
.	4A	.	4c
.	1A	.	2.c
2.E	.	.	.
.	.	.	4B
.	2G	.	[2B
4D	.	.	.
=17	=17	=17	=17
2C	2A	0r	4B]
.	.	.	4A
2AA	2c	.	1A
1E	1B	.	.
.	.	.	2G#i
=18	=18	=18	=18
1AA	[0A	0r	2A
.	.	.	2.c
1r	.	.	.
.	.	.	4B
.	.	.	4A
.	.	.	4G
=19	=19	=19	=19
1D	1A]	0r	1F
1A	1r	.	1r
=20	=20	=20	=20
2.A	0r	0r	1D
4G	.	.	.
4F	.	.	1A
4E	.	.	.
[2D	.	.	.
=21	=21	=21	=21
2D]	0r	0r	4A
.	.	.	4B
2C	.	.	4c
.	.	.	4A
4D	.	.	2B
4C	.	.	.
4BB	.	.	[2A
4AA	.	.	.
=22	=22	=22	=22
1BB	1D	0r	2A]
.	.	.	2G
1AA	1A	.	2F
.	.	.	2E
=23	=23	=23	=23
1D	1A	0r	1F
1GG	1B	.	2E
.	.	.	2D
=24	=24	=24	=24
2r	2c	0r	1A
1D	1A	.	.
.	.	.	2r
2C	2c	.	[2A
=25	=25	=25	=25
2D	1B	0r	2A]
2E	.	.	2G#i
1F	2r	.	[1A
.	[2A	.	.
=26	=26	=26	=26
1E	2A]	0r	1A]
.	2G	.	.
2r	1A	.	2.c
[2A	.	.	.
.	.	.	4d
=27	=27	=27	=27
2A]	1B	0r	0e
2G	.	.	.
2A	2.c	.	.
4AA	.	.	.
4BB	4B	.	.
=28	=28	=28	=28
4C	1A	0r	1e
4D	.	.	.
4E	.	.	.
4F	.	.	.
2.G	1B	.	1d
4F	.	.	.
=29	=29	=29	=29
1D	2A	0r	1f
.	4F	.	.
.	4G	.	.
2r	4A	.	1e
.	4B	.	.
[2AA	[2c	.	.
=30	=30	=30	=30
2AA]	2c]	0r	1.e
2GG	2B	.	.
2AA	2c	.	.
2BB	4B	.	2d
.	4A	.	.
=31	=31	=31	=31
2C	2G	0r	2e
2AA	1A	.	2c
1E	.	.	1B
.	2G#i	.	.
=32	=32	=32	=32
0AA	0A	1r	[0c
.	.	1A	.
=33	=33	=33	=33
1r	0r	2F	1c]
.	.	1A	.
1D	.	.	1r
.	.	4G	.
.	.	4F	.
=34	=34	=34	=34
2C	0r	2E	1A
1D	.	1F	.
.	.	.	2F
4C	.	4E	[2A
4BB	.	4D	.
=35	=35	=35	=35
2AA	1r	2C	4A]
.	.	.	4G
1D	.	2D	2F
.	1A	1AA	1E
2C#i	.	.	.
=36	=36	=36	=36
1D	2F	0r	2D
.	2.A	.	2f
2C	.	.	2e
.	4G	.	.
2D	2F	.	[2d
=37	=37	=37	=37
1AA	2E	1A	2d]
.	2F	.	2c
1r	2.D	2F	1d
.	.	[2A	.
.	4E	.	.
=38	=38	=38	=38
0r	1F	2A]	2c
.	.	4G	2d
.	.	4F	.
.	2G	2E	2e
.	[2A	2F	2c
=39	=39	=39	=39
0r	4A]	4D	1f
.	4G	4E	.
.	4A	4F	.
.	4B	4G	.
.	2c	2A	2e
.	[2d	2D	[2f
=40	=40	=40	=40
1D	4d]	2F	4f]
.	4c	.	4e
.	2B	1G	4d
.	.	.	4c
1D	1A	.	1d
.	.	2F#i	.
=41	=41	=41	=41
1E	1G	2G	2B
.	.	1B	1e
2.G	1r	.	.
.	.	[2B	2d
4F	.	.	.
=42	=42	=42	=42
4E	1G	2B]	0e
4D	.	.	.
1C	.	1c	.
.	1G	.	.
2E	.	2B	.
=43	=43	=43	=43
1D	1A	1d	1f
1C	[1c	1G	[1e
=44	=44	=44	=44
0GG	2c]	2r	2e]
.	4B	2G	4d
.	4A	.	4c
.	1B	1G	2.d
.	.	.	4e
=45	=45	=45	=45
0r	2.c	1A	2f
.	.	.	1e
.	4B	.	.
.	4A	[1c	.
.	4G	.	.
.	[2A	.	[2e
=46	=46	=46	=46
1C	2A]	1c]	2e]
.	4G	.	2e
.	4F	.	.
1C	1G	2.c	1e
.	.	4B	.
=47	=47	=47	=47
1D	1F	1A	1d
[1F	2.A	1r	2.c
.	4G	.	4B
=48	=48	=48	=48
2F]	4A	1r	4c
.	4B	.	4d
2E	2.c	.	1e
2C	.	2r	.
.	4B	.	.
2D	[2A	2D	[2f
=49	=49	=49	=49
1BB	2A]	1D	2f]
.	2G	.	4e
.	.	.	4d
1AA	1A	1E	[1c
=50	=50	=50	=50
0GG	1D	0G	2c]
.	.	.	4B
.	.	.	4A
.	2r	.	1B
.	[2D	.	.
=51	=51	=51	=51
0r	4D]	2F	1A
.	4C	.	.
.	4D	2.D	.
.	4E	.	.
.	2.F	.	[1d
.	.	4C	.
.	.	4D	.
.	4G	4E	.
=52	=52	=52	=52
2r	0A	1F	2d]
2.AA	.	.	4c
.	.	.	4B
.	.	2r	[1c
4GG	.	.	.
4AA	.	[2E	.
4BB	.	.	.
=53	=53	=53	=53
0C	1G	4E]	1c]
.	.	4D	.
.	.	4E	.
.	.	4F	.
.	1E	1G	2r
.	.	.	[2c
=54	=54	=54	=54
1AA	1F	1A	4c]
.	.	.	4B
.	.	.	4c
.	.	.	4d
1GG	1G	1B	2e
.	.	.	[2d
=55	=55	=55	=55
1D	1F	2A	2d]
.	.	1A	1f
1BB	1D	.	.
.	.	2G	4e
.	.	.	4d
=56	=56	=56	=56
2AA	0E	2A	2c
2GG	.	2B	1d
1AA	.	1A	.
.	.	.	2c#i
=57	=57	=57	=57
0Dl	0Dl	0Fl	0dl
==	==	==	==
*-	*-	*-	*-
!!!system-decoration: s1,s2,s3,s4
!!!RDF**kern: i = editorial accidental
!!!RDF**kern: l = terminal long
!!!ENC: Max Blistain
!!!END: 2025/11/12
!!!EED: Benjamin Ory
!!!EEV: 2025/11/19
!!!YEC: Copyright 2025 Benjamin Ory, All Rights Reserved
!!!ONB: Translated from MusicXML on 2025/11/19